Komodo/apps/scalable/wireshark.svg

<?xml version="1.0" encoding="UTF-8" standalone="no"?>
<!-- Created with Inkscape (http://www.inkscape.org/) -->

<svg
   xmlns:dc="http://purl.org/dc/elements/1.1/"
   xmlns:cc="http://creativecommons.org/ns#"
   xmlns:rdf="http://www.w3.org/1999/02/22-rdf-syntax-ns#"
   xmlns:svg="http://www.w3.org/2000/svg"
   xmlns="http://www.w3.org/2000/svg"
   xmlns:xlink="http://www.w3.org/1999/xlink"
   xmlns:sodipodi="http://sodipodi.sourceforge.net/DTD/sodipodi-0.dtd"
   xmlns:inkscape="http://www.inkscape.org/namespaces/inkscape"
   width="96"
   height="96"
   id="svg11037"
   version="1.1"
   inkscape:version="0.48.3.1 r9886"
   sodipodi:docname="wireshark.svg">
  <defs
     id="defs11039">
    <linearGradient
       y2="1046.1001"
       x2="47.999954"
       y1="962.62189"
       x1="47.999954"
       gradientTransform="matrix(1.15,0,0,1.15,-7.1999462,-150.65291)"
       gradientUnits="userSpaceOnUse"
       id="linearGradient3886"
       xlink:href="#linearGradient3795"
       inkscape:collect="always" />
    <linearGradient
       id="linearGradient3795">
      <stop
         style="stop-color:#13a6fd;stop-opacity:1;"
         offset="0"
         id="stop3797" />
      <stop
         style="stop-color:#2975b6;stop-opacity:1;"
         offset="1"
         id="stop3799" />
    </linearGradient>
    <linearGradient
       y2="1046.1001"
       x2="47.999954"
       y1="962.62189"
       x1="47.999954"
       gradientTransform="matrix(1.15,0,0,1.15,-7.1999462,-150.65292)"
       gradientUnits="userSpaceOnUse"
       id="linearGradient11642"
       xlink:href="#linearGradient3700"
       inkscape:collect="always" />
    <linearGradient
       x1="48"
       y1="90"
       x2="48"
       y2="5.9877172"
       id="linearGradient3617"
       xlink:href="#linearGradient3700"
       gradientUnits="userSpaceOnUse"
       gradientTransform="translate(121.22034,-0.81355932)" />
    <linearGradient
       id="linearGradient3700">
      <stop
         id="stop3702"
         style="stop-color:#146d96;stop-opacity:0.97254902"
         offset="0" />
      <stop
         id="stop3704"
         style="stop-color:#3cade2;stop-opacity:0.99607843"
         offset="1" />
    </linearGradient>
    <linearGradient
       y2="5.9877172"
       x2="48"
       y1="90"
       x1="48"
       gradientTransform="translate(50.489876,930.11597)"
       gradientUnits="userSpaceOnUse"
       id="linearGradient3046"
       xlink:href="#linearGradient3700"
       inkscape:collect="always" />
    <linearGradient
       x1="46.796001"
       y1="71.448395"
       x2="46.796001"
       y2="22.992983"
       id="linearGradient3672"
       xlink:href="#linearGradient3666"
       gradientUnits="userSpaceOnUse" />
    <linearGradient
       id="linearGradient3666">
      <stop
         id="stop3668"
         style="stop-color:#115575;stop-opacity:1"
         offset="0" />
      <stop
         id="stop3670"
         style="stop-color:#197ba9;stop-opacity:1"
         offset="1" />
    </linearGradient>
    <clipPath
       clipPathUnits="userSpaceOnUse"
       id="clipPath3009">
      <path
         id="path3011"
         d="m -2,956.36218 -96,0 0,33.5624 96,25.68742 0,-59.24982 z"
         style="opacity:0.15;fill:#ffffff;fill-opacity:1;stroke:none"
         inkscape:connector-curvature="0" />
    </clipPath>
  </defs>
  <sodipodi:namedview
     id="base"
     pagecolor="#ffffff"
     bordercolor="#666666"
     borderopacity="1.0"
     inkscape:pageopacity="0.0"
     inkscape:pageshadow="2"
     inkscape:zoom="3.959798"
     inkscape:cx="33.538031"
     inkscape:cy="59.964634"
     inkscape:document-units="px"
     inkscape:current-layer="layer1"
     showgrid="false"
     inkscape:window-width="1280"
     inkscape:window-height="750"
     inkscape:window-x="0"
     inkscape:window-y="22"
     inkscape:window-maximized="1"
     showguides="true"
     inkscape:guide-bbox="true">
    <sodipodi:guide
       orientation="0,1"
       position="-24.748737,0"
       id="guide11064" />
    <sodipodi:guide
       orientation="0,1"
       position="-23.233509,96"
       id="guide11066" />
    <sodipodi:guide
       orientation="1,0"
       position="0,54.800776"
       id="guide11068" />
    <sodipodi:guide
       orientation="1,0"
       position="96,51.012704"
       id="guide11070" />
    <sodipodi:guide
       orientation="0,1"
       position="-18.94036,48"
       id="guide11072" />
    <sodipodi:guide
       orientation="1,0"
       position="48,79.296975"
       id="guide11074" />
    <sodipodi:guide
       orientation="1,0"
       position="2,75.508903"
       id="guide11076" />
    <sodipodi:guide
       orientation="0,1"
       position="-77.27667,2"
       id="guide11078" />
    <sodipodi:guide
       orientation="1,0"
       position="94,77.781746"
       id="guide11080" />
    <sodipodi:guide
       orientation="0,1"
       position="-65.912454,94"
       id="guide11082" />
  </sodipodi:namedview>
  <metadata
     id="metadata11042">
    <rdf:RDF>
      <cc:Work
         rdf:about="">
        <dc:format>image/svg+xml</dc:format>
        <dc:type
           rdf:resource="http://purl.org/dc/dcmitype/StillImage" />
        <dc:title />
      </cc:Work>
    </rdf:RDF>
  </metadata>
  <g
     inkscape:label="Layer 1"
     inkscape:groupmode="layer"
     id="layer1"
     transform="translate(0,-956.36218)">
    <rect
       x="2"
       y="958.36218"
       width="92"
       height="92"
       style="fill:url(#linearGradient11642);fill-opacity:1.0"
       id="rect3867"
       rx="25"
       ry="25" />
    <g
       transform="translate(0,956.36218)"
       id="g3059">
      <path
         style="font-size:medium;font-style:normal;font-variant:normal;font-weight:normal;font-stretch:normal;text-indent:0;text-align:start;text-decoration:none;line-height:normal;letter-spacing:normal;word-spacing:normal;text-transform:none;direction:ltr;block-progression:tb;writing-mode:lr-tb;text-anchor:start;color:#000000;fill:url(#linearGradient3672);fill-opacity:1;stroke:none;stroke-width:6;marker:none;visibility:visible;display:inline;overflow:visible;enable-background:accumulate;font-family:Abandoned Bitplane;-inkscape-font-specification:Abandoned Bitplane"
         id="path3660"
         inkscape:connector-curvature="0"
         d="M 65.78125,24 C 46.462586,25.440718 36.291949,36.984045 31.5625,47.8125 27.930188,56.128972 27.36858,62.709096 27.21875,66 L 6,66 l 0,6 24,0 a 3.0003,3.0003 0 0 0 3,-3.03125 c 0,0 -0.08281,-9.258984 4.0625,-18.75 C 40.778837,41.709896 47.525986,33.275178 61.25,30.6875 53.198912,51.650021 63.375,70.46875 63.375,70.46875 A 3.0003,3.0003 0 0 0 66,72 l 24,0 0,-6 -22.0625,0 C 66.138317,62.29674 59.259969,46.144556 68.65625,28.40625 A 3.0003,3.0003 0 0 0 65.78125,24 z" />
      <path
         style="font-size:medium;font-style:normal;font-variant:normal;font-weight:normal;font-stretch:normal;text-indent:0;text-align:start;text-decoration:none;line-height:normal;letter-spacing:normal;word-spacing:normal;text-transform:none;direction:ltr;block-progression:tb;writing-mode:lr-tb;text-anchor:start;opacity:0.15;color:#000000;fill:#124964;fill-opacity:1;stroke:none;stroke-width:6;marker:none;visibility:visible;display:inline;overflow:visible;enable-background:accumulate;font-family:Abandoned Bitplane;-inkscape-font-specification:Abandoned Bitplane"
         id="path3696"
         inkscape:connector-curvature="0"
         d="M 65.78125,24 C 46.462586,25.440718 36.291949,36.984045 31.5625,47.8125 27.930188,56.128972 27.36858,62.709096 27.21875,66 L 6,66 l 0,2 7,0 0,0.0625 14.21875,0 a 2.0619912,2.0619912 0 0 0 2.0625,-1.96875 c 0.144863,-3.181803 0.652399,-9.4464 4.15625,-17.46875 4.510611,-10.327408 13.94232,-21.178534 32.5,-22.5625 0.224844,-0.01722 -0.100134,-0.01289 0.125,0 0.225134,0.01289 -0.09641,-0.04277 0.125,0 0.221409,0.04277 -0.08874,-0.04064 0.125,0.03125 0.213736,0.07189 -0.07725,-0.03723 0.125,0.0625 0.202251,0.09973 -0.09341,-0.06329 0.09375,0.0625 0.187159,0.125789 -0.07498,-0.08711 0.09375,0.0625 0.16873,0.149605 -0.05354,-0.077 0.09375,0.09375 0.147291,0.170754 -0.06073,-0.09511 0.0625,0.09375 0.123226,0.188857 -0.03446,-0.07859 0.0625,0.125 0.09696,0.203592 -0.0065,-0.0897 0.0625,0.125 0.06897,0.214696 -0.0085,-0.128222 0.03125,0.09375 0.03975,0.221972 -0.0098,-0.100289 0,0.125 0.0098,0.225289 0.02029,-0.09959 0,0.125 -0.02029,0.224588 0.05003,-0.09488 0,0.125 -0.05003,0.219882 0.01638,-0.08626 -0.0625,0.125 -0.07888,0.211255 0.07508,-0.07386 -0.03125,0.125 -9.833455,18.563603 -2.676337,35.503768 -0.75,39.46875 A 2.0619912,2.0619912 0 0 0 67.9375,68.0625 L 83,68.0625 83,68 l 7,0 0,-2 -22.0625,0 C 66.138317,62.29674 59.259969,46.144556 68.65625,28.40625 A 3.0003,3.0003 0 0 0 65.78125,24 z m -4.625,4.625 A 2.0619912,2.0619912 0 0 0 60.875,28.65625 C 46.470248,31.372282 39.070164,40.516577 35.1875,49.40625 30.8413,59.357219 30.9375,69 30.9375,69 c 0.0017,0.16673 0.01474,-0.07234 0,0.09375 -0.01474,0.166087 0.03105,-0.07007 0,0.09375 -0.03105,0.163823 0.01581,-0.09746 -0.03125,0.0625 -0.04706,0.15996 0.03136,-0.06079 -0.03125,0.09375 -0.06261,0.154537 0.0463,-0.05386 -0.03125,0.09375 -0.07755,0.147606 0.02924,-0.04548 -0.0625,0.09375 -0.09174,0.139235 0.04253,-0.067 -0.0625,0.0625 -0.105026,0.129505 0.05479,-0.05601 -0.0625,0.0625 -0.11729,0.118512 0.06591,-0.04386 -0.0625,0.0625 -0.12841,0.106362 0.07578,-0.03068 -0.0625,0.0625 -0.138277,0.09318 0.05304,-0.04783 -0.09375,0.03125 -0.0367,0.01977 -0.06178,0.0267 -0.0625,0.03125 0.005,0.0055 0.01923,0.02322 0,0.03125 -0.15388,0.06421 0.06571,-0.01747 -0.09375,0.03125 -0.159464,0.04872 0.06974,-0.03275 -0.09375,0 -0.163492,0.03275 0.07218,0.01479 -0.09375,0.03125 -0.165925,0.01646 0.07299,-8e-6 -0.09375,0 l -17,0 0,0.0625 -7,0 0,2 24,0 a 3.0003,3.0003 0 0 0 3,-3.03125 c 0,0 -0.08281,-9.258984 4.0625,-18.75 C 40.778837,41.709896 47.525986,33.275178 61.25,30.6875 53.198912,51.650021 63.375,70.46875 63.375,70.46875 A 3.0003,3.0003 0 0 0 66,72 l 24,0 0,-2 -7,0 0,-0.0625 -17,0 c -0.22402,6.68e-4 0.09714,0.02899 -0.125,0 -0.222137,-0.02899 0.09134,0.02689 -0.125,-0.03125 -0.216344,-0.05814 0.08174,0.05502 -0.125,-0.03125 -0.206744,-0.08627 0.09976,0.05038 -0.09375,-0.0625 -0.193505,-0.112878 0.05186,0.075 -0.125,-0.0625 -0.17686,-0.137499 0.06335,0.06595 -0.09375,-0.09375 -0.157102,-0.159701 0.07208,0.08534 -0.0625,-0.09375 -0.103522,-0.137763 -0.05519,-0.04003 -0.0625,-0.0625 0,0 8.3e-5,-0.0311 0,-0.03125 -0.0399,-0.07424 -9.67864,-18.038468 -2,-38.03125 A 2.0619912,2.0619912 0 0 0 61.15625,28.625 z" />
      <path
         style="font-size:medium;font-style:normal;font-variant:normal;font-weight:normal;font-stretch:normal;text-indent:0;text-align:start;text-decoration:none;line-height:normal;letter-spacing:normal;word-spacing:normal;text-transform:none;direction:ltr;block-progression:tb;writing-mode:lr-tb;text-anchor:start;opacity:0.3;color:#000000;fill:#ffffff;fill-opacity:1;stroke:none;stroke-width:6;marker:none;visibility:visible;display:inline;overflow:visible;enable-background:accumulate;font-family:Abandoned Bitplane;-inkscape-font-specification:Abandoned Bitplane"
         id="path3674"
         inkscape:connector-curvature="0"
         d="m 68.96875,27.5625 a 3.0003,3.0003 0 0 1 -0.3125,0.84375 c -3.663676,6.916291 -4.862676,13.584887 -4.84375,19.375 0.116767,-5.551695 1.390229,-11.85544 4.84375,-18.375 a 3.0003,3.0003 0 0 0 0.3125,-1.84375 z M 61.25,30.6875 C 47.525986,33.275178 40.778837,41.709896 37.0625,50.21875 32.91719,59.709766 33,68.96875 33,68.96875 A 3.0003,3.0003 0 0 1 30,72 l -24,0 0,1 24,0 a 3.0003,3.0003 0 0 0 3,-3.03125 c 0,0 -0.08281,-9.258984 4.0625,-18.75 3.68131,-8.428656 10.347767,-16.765539 23.8125,-19.4375 0.128703,-0.36184 0.2355,-0.730537 0.375,-1.09375 z M 58.15625,48 C 57.988824,61.504414 63.375,71.46875 63.375,71.46875 A 3.0003,3.0003 0 0 0 66,73 l 24,0 0,-1 -24,0 a 3.0003,3.0003 0 0 1 -2.625,-1.53125 c 0,0 -5.117956,-9.478136 -5.21875,-22.46875 z" />
      <path
         style="font-size:medium;font-style:normal;font-variant:normal;font-weight:normal;font-stretch:normal;text-indent:0;text-align:start;text-decoration:none;line-height:normal;letter-spacing:normal;word-spacing:normal;text-transform:none;direction:ltr;block-progression:tb;writing-mode:lr-tb;text-anchor:start;opacity:0.3;color:#000000;fill:#000000;fill-opacity:1;stroke:none;stroke-width:6;marker:none;visibility:visible;display:inline;overflow:visible;enable-background:accumulate;font-family:Abandoned Bitplane;-inkscape-font-specification:Abandoned Bitplane"
         id="path3683"
         inkscape:connector-curvature="0"
         d="M 65.78125,24 C 46.462586,25.440718 36.291949,36.984045 31.5625,47.8125 27.930188,56.128972 27.36858,62.709096 27.21875,66 L 6,66 6,67 27.21875,67 C 27.36858,63.709096 27.930188,57.128972 31.5625,48.8125 36.291949,37.984045 46.462586,26.440718 65.78125,25 a 3.0003,3.0003 0 0 1 3.1875,2.53125 A 3.0003,3.0003 0 0 0 65.78125,24 z M 61.25,31.6875 c -0.129351,0.02439 -0.246885,0.06833 -0.375,0.09375 C 58.84583,37.486114 58.117441,42.998172 58.15625,48 58.218907,42.946128 59.057493,37.396103 61.25,31.6875 z m 2.5625,16.09375 C 63.61157,57.334512 66.799591,64.657841 67.9375,67 L 90,67 90,66 67.9375,66 c -1.097669,-2.259333 -4.095386,-9.158882 -4.125,-18.21875 z" />
      <path
         style="font-size:medium;font-style:normal;font-variant:normal;font-weight:normal;font-stretch:normal;text-indent:0;text-align:start;text-decoration:none;line-height:normal;letter-spacing:normal;word-spacing:normal;text-transform:none;direction:ltr;block-progression:tb;writing-mode:lr-tb;text-anchor:start;opacity:0.4;color:#000000;fill:#124964;fill-opacity:1;stroke:none;stroke-width:6;marker:none;visibility:visible;display:inline;overflow:visible;enable-background:accumulate;font-family:Abandoned Bitplane;-inkscape-font-specification:Abandoned Bitplane"
         id="path3692"
         inkscape:connector-curvature="0"
         d="M 65.78125,24 C 54.267329,24.672848 42.9093,30.183344 36.1875,39.71875 30.734265,47.350066 27.684551,56.651904 27.21875,66 L 6,66 l 0,1 1,0 6,0 c 4.837712,0.01024 9.671704,0.01819 14.5,-0.0625 1.368551,-0.715104 0.464401,-2.689085 0.90625,-3.90625 1.54033,-13.013133 8.07257,-26.212381 19.78125,-32.875 5.367462,-3.118921 11.491191,-4.738039 17.65625,-5.1875 1.754569,-0.192293 2.86764,2.081882 1.71875,3.40625 -6.229112,11.750452 -6.228705,26.445229 -0.34375,38.3125 1.08397,0.721588 2.576898,0.117789 3.8125,0.3125 L 83,67 l 6,0 1,0 0,-1 -22.0625,0 c -5.668375,-11.829517 -5.518795,-26.344528 0.84375,-37.875 0.892755,-1.976952 -0.842082,-4.361638 -3,-4.125 z M 61,29.71875 C 60.345374,29.72645 59.572235,29.973323 59.125,30.125 49.535252,32.180629 41.267916,38.943579 37.09375,47.78125 33.662398,54.579154 32.228286,62.210486 31.875,69.75 31.000387,71.705698 28.571118,70.792038 26.90625,71 L 13,71 7,71 6,71 6,72 c 8.197431,-0.03998 16.402564,0.07724 24.59375,-0.0625 2.558335,-0.448217 2.536526,-3.395717 2.5,-5.40625 C 34.039174,55.06575 38.431538,42.960878 48.125,36.0625 52.016654,33.299468 56.574935,31.559356 61.25,30.6875 56.293145,43.552766 57.442215,58.446935 63.53125,70.71875 65.024311,72.726171 67.754537,71.777652 69.875,72 L 90,72 90,71 89,71 C 87.003316,70.9893 84.998469,70.9962 83,71 77.150316,71.01113 71.30364,71.04654 65.46875,70.9375 63.633999,70.321593 63.499435,67.894984 62.65625,66.40625 58.268555,55.085469 57.82205,42.136637 62.21875,30.75 62.190741,29.942427 61.654626,29.711026 61,29.71875 z" />
    </g>
    <rect
       ry="25"
       rx="25"
       id="rect3003"
       style="opacity:0.15;fill:#ffffff;fill-opacity:1"
       height="92"
       width="92"
       y="958.36218"
       x="-96"
       clip-path="url(#clipPath3009)"
       transform="translate(98,3.8281269e-7)" />
  </g>
</svg>

<?xml version="1.0" encoding="UTF-8" standalone="no"?>
<!-- Created with Inkscape (http://www.inkscape.org/) -->
<svg id="svg11037" xmlns:rdf="http://www.w3.org/1999/02/22-rdf-syntax-ns#" xmlns="http://www.w3.org/2000/svg" height="96" width="96" version="1.1" xmlns:cc="http://creativecommons.org/ns#" xmlns:xlink="http://www.w3.org/1999/xlink" xmlns:dc="http://purl.org/dc/elements/1.1/">
 <defs id="defs11039">
  <linearGradient id="linearGradient11642" y2="1046.1" gradientUnits="userSpaceOnUse" y1="962.62" gradientTransform="matrix(1.15 0 0 1.15 -7.1999 -150.65)" x2="48" x1="48">
   <stop id="stop3702" style="stop-color:#146d96;stop-opacity:.97255" offset="0"/>
   <stop id="stop3704" style="stop-color:#3cade2;stop-opacity:.99608" offset="1"/>
  </linearGradient>
  <linearGradient id="linearGradient3672" y2="22.993" gradientUnits="userSpaceOnUse" x2="46.796" y1="71.448" x1="46.796">
   <stop id="stop3668" style="stop-color:#115575" offset="0"/>
   <stop id="stop3670" style="stop-color:#197ba9" offset="1"/>
  </linearGradient>
  <clipPath id="clipPath3009" clipPathUnits="userSpaceOnUse">
   <path id="path3011" style="opacity:.15;fill:#fff" d="m-2 956.36h-96v33.562l96 25.687v-59.25z"/>
  </clipPath>
 </defs>
 <metadata id="metadata11042">
  <rdf:RDF>
   <cc:Work rdf:about="">
    <dc:format>image/svg+xml</dc:format>
    <dc:type rdf:resource="http://purl.org/dc/dcmitype/StillImage"/>
    <dc:title/>
   </cc:Work>
  </rdf:RDF>
 </metadata>
 <g id="layer1" transform="translate(0 -956.36)">
  <rect id="rect3867" style="fill:url(#linearGradient11642)" rx="25" ry="25" height="92" width="92" y="958.36" x="2"/>
  <g id="g3059" transform="translate(0 956.36)">
   <path id="path3660" d="m65.781 24c-19.318 1.441-29.489 12.984-34.219 23.812-3.632 8.317-4.193 14.897-4.343 18.188h-21.219v6h24a3.0003 3.0003 0 0 0 3 -3.0312s-0.08281-9.259 4.0625-18.75c3.717-8.509 10.464-16.944 24.188-19.531-8.051 20.962 2.125 39.781 2.125 39.781a3.0003 3.0003 0 0 0 2.625 1.531h24v-6h-22.062c-1.8-3.703-8.678-19.855 0.718-37.594a3.0003 3.0003 0 0 0 -2.875 -4.406z" style="block-progression:tb;text-indent:0;color:#000000;text-transform:none;fill:url(#linearGradient3672)"/>
   <path id="path3696" d="m65.781 24c-19.318 1.441-29.489 12.984-34.219 23.812-3.632 8.317-4.193 14.897-4.343 18.188h-21.219v2h7v0.0625h14.219a2.062 2.062 0 0 0 2.0625 -1.9688c0.14486-3.1818 0.6524-9.4464 4.1562-17.469 4.5106-10.327 13.942-21.179 32.5-22.562 0.22484-0.01722-0.10013-0.01289 0.125 0s-0.09641-0.04277 0.125 0-0.08874-0.04064 0.125 0.03125-0.07725-0.03723 0.125 0.0625-0.09341-0.06329 0.09375 0.0625-0.07498-0.08711 0.09375 0.0625c0.16873 0.1496-0.05354-0.077 0.09375 0.09375s-0.06073-0.09511 0.0625 0.09375-0.03446-0.07859 0.0625 0.125-0.0065-0.0897 0.0625 0.125c0.06897 0.2147-0.0085-0.12822 0.03125 0.09375s-0.0098-0.10029 0 0.125 0.02029-0.09959 0 0.125 0.05003-0.09488 0 0.125 0.01638-0.08626-0.0625 0.125 0.07508-0.07386-0.03125 0.125c-9.8335 18.564-2.6763 35.504-0.75 39.469a2.062 2.062 0 0 0 1.845 1.157h15.062v-0.062h7v-2h-22.062c-1.8-3.703-8.678-19.855 0.718-37.594a3.0003 3.0003 0 0 0 -2.875 -4.406zm-4.625 4.625a2.062 2.062 0 0 0 -0.281 0.031c-14.405 2.716-21.805 11.861-25.687 20.75-4.347 9.951-4.25 19.594-4.25 19.594 0.0017 0.16673 0.01474-0.07234 0 0.09375s0.03105-0.07007 0 0.09375 0.01581-0.09746-0.03125 0.0625 0.03136-0.06079-0.03125 0.09375 0.0463-0.05386-0.03125 0.09375 0.02924-0.04548-0.0625 0.09375c-0.09174 0.13924 0.04253-0.067-0.0625 0.0625s0.05479-0.05601-0.0625 0.0625 0.06591-0.04386-0.0625 0.0625 0.07578-0.03068-0.0625 0.0625 0.05304-0.04783-0.09375 0.03125c-0.0367 0.01977-0.06178 0.0267-0.0625 0.03125 0.005 0.0055 0.01923 0.02322 0 0.03125-0.15388 0.06421 0.06571-0.01747-0.09375 0.03125s0.06974-0.03275-0.09375 0 0.07218 0.01479-0.09375 0.03125c-0.16592 0.01646 0.07299-0.000008-0.09375 0h-17v0.0625h-7v2h24a3.0003 3.0003 0 0 0 3 -3.0312s-0.08281-9.259 4.0625-18.75c3.717-8.509 10.464-16.944 24.188-19.531-8.051 20.962 2.125 39.781 2.125 39.781a3.0003 3.0003 0 0 0 2.625 1.531h24v-2h-7v-0.0625h-17c-0.22402 0.000668 0.09714 0.02899-0.125 0s0.09134 0.02689-0.125-0.03125 0.08174 0.05502-0.125-0.03125 0.09976 0.05038-0.09375-0.0625c-0.1935-0.11288 0.05186 0.075-0.125-0.0625s0.06335 0.06595-0.09375-0.09375 0.07208 0.08534-0.0625-0.09375c-0.10352-0.13776-0.05519-0.04003-0.0625-0.0625 0 0 0.000083-0.0311 0-0.03125-0.0399-0.07424-9.6786-18.038-2-38.031a2.062 2.062 0 0 0 -2.032 -2.813z" style="opacity:.15;block-progression:tb;text-indent:0;color:#000000;text-transform:none;fill:#124964"/>
   <path id="path3674" d="m68.969 27.562a3.0003 3.0003 0 0 1 -0.3125 0.84375c-3.6637 6.9163-4.8627 13.585-4.8438 19.375 0.11677-5.5517 1.3902-11.855 4.8438-18.375a3.0003 3.0003 0 0 0 0.3125 -1.8438zm-7.719 3.126c-13.724 2.587-20.471 11.022-24.188 19.531-4.145 9.491-4.062 18.75-4.062 18.75a3.0003 3.0003 0 0 1 -3 3.031h-24v1h24a3.0003 3.0003 0 0 0 3 -3.0312s-0.08281-9.259 4.0625-18.75c3.6813-8.4287 10.348-16.766 23.812-19.438 0.1287-0.36184 0.2355-0.73054 0.375-1.0938zm-3.094 17.312c-0.167 13.504 5.219 23.469 5.219 23.469a3.0003 3.0003 0 0 0 2.625 1.531h24v-1h-24a3.0003 3.0003 0 0 1 -2.625 -1.5312s-5.118-9.4781-5.2188-22.469z" style="opacity:.3;block-progression:tb;text-indent:0;color:#000000;text-transform:none;fill:#fff"/>
   <path id="path3683" d="m65.781 24c-19.318 1.441-29.489 12.984-34.219 23.812-3.632 8.317-4.193 14.897-4.343 18.188h-21.219v1h21.219c0.15-3.291 0.711-9.871 4.343-18.188 4.73-10.828 14.901-22.371 34.219-23.812a3.0003 3.0003 0 0 1 3.1875 2.5312 3.0003 3.0003 0 0 0 -3.187 -3.531zm-4.531 7.688c-0.12935 0.02439-0.24688 0.06833-0.375 0.09375-2.029 5.704-2.758 11.216-2.719 16.218 0.063-5.054 0.901-10.604 3.094-16.312zm2.5625 16.094c-0.2 9.553 2.988 16.876 4.126 19.218h22.062v-1h-22.062c-1.0977-2.2593-4.0954-9.1589-4.125-18.219z" style="opacity:.3;block-progression:tb;text-indent:0;color:#000000;text-transform:none"/>
   <path id="path3692" d="m65.781 24c-11.514 0.673-22.872 6.183-29.593 15.719-5.454 7.631-8.503 16.933-8.969 26.281h-21.219v1h1 6c4.8377 0.01024 9.6717 0.01819 14.5-0.0625 1.3686-0.7151 0.4644-2.6891 0.90625-3.9062 1.5403-13.013 8.0726-26.212 19.781-32.875 5.3675-3.1189 11.491-4.738 17.656-5.1875 1.7546-0.19229 2.8676 2.0819 1.7188 3.4062-6.2291 11.75-6.2287 26.445-0.34375 38.312 1.084 0.72159 2.5769 0.11779 3.8125 0.3125l11.97 0.002h6 1v-1h-22.062c-5.6684-11.83-5.5188-26.345 0.84375-37.875 0.89276-1.977-0.84208-4.3616-3-4.125zm-4.781 5.719c-0.655 0.007-1.428 0.254-1.875 0.406-9.59 2.056-17.857 8.819-22.031 17.656-3.432 6.798-4.866 14.429-5.219 21.969-0.875 1.956-3.304 1.042-4.969 1.25h-13.906-6-1v1c8.1974-0.03998 16.403 0.07724 24.594-0.0625 2.5583-0.44822 2.5365-3.3957 2.5-5.4062 0.945-11.465 5.338-23.57 15.031-30.469 3.892-2.763 8.45-4.503 13.125-5.374-4.957 12.865-3.808 27.759 2.281 40.031 1.493 2.007 4.224 1.059 6.344 1.281h20.125v-1h-1c-1.997-0.011-4.002-0.004-6 0-5.85 0.011-11.696 0.047-17.531-0.062-1.835-0.616-1.97-3.043-2.813-4.532-4.387-11.321-4.834-24.269-0.437-35.656-0.028-0.808-0.564-1.039-1.219-1.031z" style="opacity:.4;block-progression:tb;text-indent:0;color:#000000;text-transform:none;fill:#124964"/>
  </g>
  <rect id="rect3003" style="opacity:.15;fill:#fff" transform="translate(98 3.8281e-7)" clip-path="url(#clipPath3009)" rx="25" ry="25" height="92" width="92" y="958.36" x="-96"/>
 </g>
</svg>
